X:1
T:Trauer und Trost, Op.3
T:Treue
T:5. Treue
T:Peter Cornelius
T:Trauer und Trost, Op.3
T:Peter Cornelius
T:Creative Commons copyright waiver (CC0 1.0 Universal) 
T:Creative Commons copyright waiver (CC0 1.0 Universal) 
C:Peter Cornelius
Z:Peter Cornelius
Z:Creative Commons copyright waiver (CC0 1.0 Universal)
Z:
L:1/8
M:2/4
K:G
V:1 treble nm="Voice" snm="Vo."
V:1
 d>B | BG z G/G/ | A3 c | B3 z | e>d c/B/A/G/ | d>A AB | B>A Ge |[M:3/4] d/B/c/B/ BA z A/A/ | %8
w: Dein Ge-|den- ken lebt in|Lie- dern|fort;|Lie- der, die der tief- sten|Brust ent- wal- len,|sa- gen mir: du|lebst in ih- nen al- len, und ge-|
[M:2/4] d3 c | B3 A | G3 F | G3 z | z4 | z2 d>B | BG z G/G/ | A3 c | B3 z | e>d c/B/A/G/ | d>A AB | %19
w: wiss die|Lie- der|hal- ten|Wort.||Dein Ge-|den- ken blüht in|Trä- nen|fort;|Trä- nen, aus des Her- zens|Hei- lig- tu- me,|
 B>A A/F/G/B/ |[M:3/4] e>d dc z/ BA/ |[M:2/4] d3 c | B3 A | G3 F | G2 z2 | z4 | z2 d>B | %27
w: näh- ren tau- end der Er-|inn'- rung Blu- me, in dem|Tau blüht|dein Ge-|den- ken|fort.||Dein Ge-|
 BG z G/G/ | A3 c | B3 z |[K:Ab] c>A F/A/G/d/ | c>A AE | z A/A/ z A/A/ | %33
w: den- ken lebt in|Träu- men|fort;|Träu- me, die dein Bild ver-|klärt mir zei- gen,|sa- gen: dass du|
[M:3/4] =A/=E/=F/>G/ GF z/ =F=F/ |[M:2/4] =d3 c | =B3 =A | G3 ^F | G3 z |] %38
w: e- wig bist mein ei- gen, und ge-|wiss, die|Träu- me|hal- ten|Wort!|

